X:8858
T:La canjonnière
R:Promenée de noce
A:Normandie
O:France
M:2/4
L:1/8
Q:1/4=90
K:G
B/2G/2D/2G/2 BB| B/2G/2D/2G/2 BB|e/2e/2e/2e/2 d/2d/2d/2d/2|
|1e/2d/2c/2A/2 BG:|2e/2d/2c/2A/2 G2|
|:cB A/2G/2A/2B/2|AG D2|B/2B/2B/2B/2 d/2c/2B/2A/2|1B2G2:|2G4||


